!! Ludwig van Beethoven, "Variation 5" from
!! "Six Easy Variations on a Swiss Air" (1798) for harpsichord, Opus 183.
!! Kalmus Edition, Score No. 1031; (CGC library) M3.B42 Ser. 16, Vol. 6, p.8
!! Andante con moto.
**kern	**kern	**kern
*M4/4	*M4/4	*M4/4
*F	*F	*F
4r	4r	4c
=1	=1	=1
4F	1r	{8f
.	.	8a
4E	.	8g
.	.	8b-
4F	.	8g#
.	.	8a
4D	.	16b-
.	.	16a
.	.	16gn
.	.	16f}
=2	=2	=2
8r	1r	[{2cc
{8C	.	.
8F	.	.
8A	.	.
8c	.	8cc]
8d	.	8b-
8c	.	8a
8B-	.	8g
=3	=3	=3
8A	1r	4f}
8c	.	.
8B-	.	4r
8A	.	.
8G	.	4r
8F	.	.
8E	.	{16bn
.	.	16cc
8F}	.	16dd
.	.	16cc}
=4	=4	=4
8E	1r	{8cc
8G	.	8ee
8D	.	8dd
8G	.	8ff
8C	.	8dd#
8G	.	8ee
8E	.	16ff
.	.	16ee
8G	.	16ddn
.	.	16cc}
=5	=5	=5
8r	1r	2ff
{8FF	.	.
8D	.	.
8C	.	.
8BBn	.	2dd
8GG	.	.
8G	.	.
8F	.	.
=6	=6	=6
8E	1r	4cc
8F	.	.
8G	.	4r
8E	.	.
8C	.	4r
8D	.	.
8C	.	4cc
8BB-	.	.
=7	=7	=7
4AA}	1r	{8ff
.	.	8f
8r	.	8ee
{8c	.	8f}
4B-'}	.	8r
.	.	{8dd
4A'	.	8f
.	.	8cc}
=8	=8	=8
4r	2r	{8ff
.	.	8f
8r	.	8ee
{8c	.	8f}
4B-'}	4r	8r
.	.	{8dd
{4G	4e	8cc
.	.	8b-}
=9	=9	=9
8F	4f	{8a
8c	.	8cc
8G	2.r	8b-
8c	.	8ee
8A	.	8cc
8c	.	8ff
8B-	.	8dd
8d}	.	8gg}
=10	=10	=10
2c	8r	8r
.	{8a	{8ff
.	8cc	8ee
.	8b-	8dd
2C	8a	8cc
.	8b-	8dd
.	8a	8cc
.	8g	8b-
=11	=11	=11
2.FF 2.F	8f	8a
.	8c	8g
.	8A	8f
.	8c	8g
.	4A}	4f}
==	==	==
*-	*-	*-
